X:10
T:Grand Pere Corbefin
R:Rondeau
A:Gascogne
O:France
M:2/4
L:1/8
K:C
g>f eg|ed cd|1ee ef/2e/2|dc d2:|2ef gc|d2c2|
|:c/2d/2e/2f/2 gg|aa g/2a/2g/2f/2|e/2d/2e/2f/2 gg|aa g2:||
